assets/images/grid1/border-wrap.svg

<svg width="1600" height="1144" viewBox="0 0 1600 1144" fill="none" xmlns="http://www.w3.org/2000/svg">
<mask id="path-1-inside-1_653_633" fill="white">
<path d="M0 38.4C0 24.9588 0 18.2381 2.61584 13.1042C4.9168 8.58834 8.58834 4.9168 13.1042 2.61584C18.2381 0 24.9587 0 38.4 0H1561.6C1575.04 0 1581.76 0 1586.9 2.61584C1591.41 4.9168 1595.08 8.58834 1597.38 13.1042C1600 18.2381 1600 24.9587 1600 38.4V1144H0V38.4Z"/>
</mask>
<path d="M-1 24C-1 10.1929 10.1929 -1 24 -1H1576C1589.81 -1 1601 10.1929 1601 24H1599C1599 11.2975 1588.7 1 1576 1H24C11.2975 1 1 11.2975 1 24H-1ZM1600 1144H0H1600ZM-1 1144V24C-1 10.1929 10.1929 -1 24 -1V1C11.2975 1 1 11.2975 1 24V1144H-1ZM1576 -1C1589.81 -1 1601 10.1929 1601 24V1144H1599V24C1599 11.2975 1588.7 1 1576 1V-1Z" fill="url(#paint0_linear_653_633)" fill-opacity="0.16" mask="url(#path-1-inside-1_653_633)"/>
<defs>
<linearGradient id="paint0_linear_653_633" x1="217.391" y1="-50.05" x2="567.309" y2="470.095" gradientUnits="userSpaceOnUse">
<stop stop-color="white"/>
<stop offset="1" stop-color="white" stop-opacity="0"/>
</linearGradient>
</defs>
</svg>

<svg width="1600" height="1144" fill="none" xmlns="http://www.w3.org/2000/svg"><mask id="b" fill="#fff"><path d="M0 38.4c0-13.441 0-20.162 2.616-25.296A24 24 0 0 1 13.104 2.616C18.238 0 24.96 0 38.4 0h1523.2c13.44 0 20.16 0 25.3 2.616a24.007 24.007 0 0 1 10.48 10.488C1600 18.238 1600 24.96 1600 38.4V1144H0V38.4Z"/></mask><path d="M-1 24C-1 10.193 10.193-1 24-1h1552c13.81 0 25 11.193 25 25h-2c0-12.703-10.3-23-23-23H24C11.297 1 1 11.297 1 24h-2Zm1601 1120H0h1600Zm-1601 0V24C-1 10.193 10.193-1 24-1v2C11.297 1 1 11.297 1 24v1120h-2ZM1576-1c13.81 0 25 11.193 25 25v1120h-2V24c0-12.703-10.3-23-23-23v-2Z" fill="url(#a)" fill-opacity=".16" mask="url(#b)"/><defs><linearGradient id="a" x1="217.391" y1="-50.05" x2="567.309" y2="470.095" gradientUnits="userSpaceOnUse"><stop stop-color="#fff"/><stop offset="1" stop-color="#fff" stop-opacity="0"/></linearGradient></defs></svg>
